X:0805
T:Down with the Peebles,
S:Aird v5 p2
C:Irish.
M:C
L:1/8
Q:1/2=100
I: :: :: :|
Z:Jack Campin * www.campin.me.uk * 2009
K:D
B|(AG)(FE) E2Ed|(AG)(FE) E2dB|(AG)(FE) (de)(fe)|(dcd)F E3:|
B| AFdF    AFdF| AfdF    A2AB|(AF)(ED) (de)(fe)|(dAd)F E3:|
b|(ag)(fe) f2fb| agfg    e2eb|(ag)(fe)  defe   |(dcd)F E3:|

